X: 7412
T: Clogger's Quilt, The
R: reel
M: 4/4
K: Gmajor
|:c3 d cFAF|DGGA G2 AB|c2 AF CFAF|G2 FG AF F2:|
|:Ac (3c^Bc dcAc|dgga gfde|(3fef fd c2 Ac|f3 g af f2:|
|:d3 e dGBG|EAAB A2 Bc|d2 BG DGBG|A2 GA BG G2:|
|:Bd (3d^cd edBd|eaab agef|(3gfg ge d2 Bd|g3 a bg g2:|

